X: 20773
Q: "Slow."
M: C|
L: 1/16
K: G
(Bc) |\
d3ed2B2 g3fe2d2 | d3e (ed)(cB) B2A2 A2(Bc) |\
d2B2c2d2 e2f2Hg2e2 | d2G2d3B (A>G)(AB) G4 H|]
(B3c)(A3B) (G2B2)(E3G) | D2G2B3G d2(cB) ({B}A3B) |\


